Newaita-dark/apps/128/kipi-logo.svg

<?xml version="1.0" encoding="UTF-8"?>
<svg xmlns="http://www.w3.org/2000/svg" xmlns:xlink="http://www.w3.org/1999/xlink" width="128pt" height="128pt" viewBox="0 0 128 128" version="1.1">
<defs>
<radialGradient id="radial0" gradientUnits="userSpaceOnUse" cx="450.908936" cy="189.579361" fx="450.908936" fy="189.579361" r="21.166656" gradientTransform="matrix(0.000000696681,-0.31253,-0.562554,-0.000000406154,178.092608,254.381318)">
<stop offset="0" style="stop-color:rgb(0%,0%,0%);stop-opacity:0.313725;"/>
<stop offset="0.222222" style="stop-color:rgb(0%,0%,0%);stop-opacity:0.27451;"/>
<stop offset="1" style="stop-color:rgb(0%,0%,0%);stop-opacity:0;"/>
</radialGradient>
<radialGradient id="radial1" gradientUnits="userSpaceOnUse" cx="450.908936" cy="189.579361" fx="450.908936" fy="189.579361" r="21.166656" gradientTransform="matrix(-0.000000696681,0.31253,0.562554,0.000000406154,-51.080475,-30.109928)">
<stop offset="0" style="stop-color:rgb(0%,0%,0%);stop-opacity:0.313725;"/>
<stop offset="0.222222" style="stop-color:rgb(0%,0%,0%);stop-opacity:0.27451;"/>
<stop offset="1" style="stop-color:rgb(0%,0%,0%);stop-opacity:0;"/>
</radialGradient>
<radialGradient id="radial2" gradientUnits="userSpaceOnUse" cx="450.908936" cy="189.579361" fx="450.908936" fy="189.579361" r="21.166656" gradientTransform="matrix(-0.000000696681,-0.31253,0.562554,-0.000000406154,-51.080475,254.381318)">
<stop offset="0" style="stop-color:rgb(0%,0%,0%);stop-opacity:0.313725;"/>
<stop offset="0.222222" style="stop-color:rgb(0%,0%,0%);stop-opacity:0.27451;"/>
<stop offset="1" style="stop-color:rgb(0%,0%,0%);stop-opacity:0;"/>
</radialGradient>
<radialGradient id="radial3" gradientUnits="userSpaceOnUse" cx="450.908936" cy="189.579361" fx="450.908936" fy="189.579361" r="21.166656" gradientTransform="matrix(0.000000696681,0.31253,-0.562554,0.000000406154,178.0926,-30.10993)">
<stop offset="0" style="stop-color:rgb(0%,0%,0%);stop-opacity:0.313725;"/>
<stop offset="0.222222" style="stop-color:rgb(0%,0%,0%);stop-opacity:0.27451;"/>
<stop offset="1" style="stop-color:rgb(0%,0%,0%);stop-opacity:0;"/>
</radialGradient>
<linearGradient id="linear0" gradientUnits="userSpaceOnUse" x1="255.323059" y1="233.5" x2="255.323044" y2="254.666656" gradientTransform="matrix(0.0534402,0,0,0.250024,49.861545,53.755135)">
<stop offset="0" style="stop-color:rgb(0%,0%,0%);stop-opacity:0.27451;"/>
<stop offset="1" style="stop-color:rgb(0%,0%,0%);stop-opacity:0;"/>
</linearGradient>
<linearGradient id="linear1" gradientUnits="userSpaceOnUse" x1="254" y1="-168.666672" x2="254" y2="233.5" gradientTransform="matrix(0.250024,0,0,0.250024,0,53.755132)">
<stop offset="0" style="stop-color:rgb(69.019608%,74.509804%,77.254902%);stop-opacity:1;"/>
<stop offset="1" style="stop-color:rgb(47.058824%,56.470588%,61.176471%);stop-opacity:1;"/>
</linearGradient>
<linearGradient id="linear2" gradientUnits="userSpaceOnUse" x1="243.416672" y1="-147.5" x2="243.416672" y2="-62.833332" gradientTransform="matrix(1,0,0,1,-0.0000336784,0)">
<stop offset="0" style="stop-color:rgb(93.72549%,32.54902%,31.372549%);stop-opacity:1;"/>
<stop offset="1" style="stop-color:rgb(89.803922%,45.098039%,45.098039%);stop-opacity:1;"/>
</linearGradient>
<linearGradient id="linear3" gradientUnits="userSpaceOnUse" x1="243.416656" y1="-147.5" x2="243.416656" y2="-62.833336" gradientTransform="matrix(1,0,0,1,116.416672,74.083336)">
<stop offset="0" style="stop-color:rgb(14.901961%,65.098039%,60.392157%);stop-opacity:1;"/>
<stop offset="1" style="stop-color:rgb(30.196078%,71.372549%,67.45098%);stop-opacity:1;"/>
</linearGradient>
<linearGradient id="linear4" gradientUnits="userSpaceOnUse" x1="264.583344" y1="-147.5" x2="264.583344" y2="-62.833336" gradientTransform="matrix(1,0,0,1,-116.416672,74.083336)">
<stop offset="0" style="stop-color:rgb(25.882353%,64.705882%,96.078431%);stop-opacity:1;"/>
<stop offset="1" style="stop-color:rgb(39.215686%,70.980392%,96.470588%);stop-opacity:1;"/>
</linearGradient>
<linearGradient id="linear5" gradientUnits="userSpaceOnUse" x1="275.166687" y1="-147.5" x2="275.166687" y2="-62.833328" gradientTransform="matrix(1,0,0,1,-116.416679,201.083328)">
<stop offset="0" style="stop-color:rgb(100%,79.215686%,15.686275%);stop-opacity:1;"/>
<stop offset="1" style="stop-color:rgb(100%,83.529412%,30.980392%);stop-opacity:1;"/>
</linearGradient>
</defs>
<g id="surface1">
<path style=" stroke:none;fill-rule:nonzero;fill:url(#radial0);" d="M 72.765625 112.136719 L 83.351562 112.136719 L 83.351562 106.84375 L 72.765625 106.84375 Z M 72.765625 112.136719 "/>
<path style=" stroke:none;fill-rule:nonzero;fill:url(#radial1);" d="M 54.246094 112.136719 L 43.660156 112.136719 L 43.660156 117.429688 L 54.246094 117.429688 Z M 54.246094 112.136719 "/>
<path style=" stroke:none;fill-rule:nonzero;fill:url(#radial2);" d="M 54.246094 112.136719 L 43.660156 112.136719 L 43.660156 106.84375 L 54.246094 106.84375 Z M 54.246094 112.136719 "/>
<path style=" stroke:none;fill-rule:nonzero;fill:url(#radial3);" d="M 72.765625 112.136719 L 83.351562 112.136719 L 83.351562 117.429688 L 72.765625 117.429688 Z M 72.765625 112.136719 "/>
<path style=" stroke:none;fill-rule:nonzero;fill:url(#linear0);" d="M 54.246094 110.8125 L 72.765625 110.8125 L 72.765625 117.429688 L 54.246094 117.429688 Z M 54.246094 110.8125 "/>
<path style=" stroke:none;fill-rule:nonzero;fill:url(#linear1);" d="M 63.507812 11.585938 C 35.652344 11.585938 13.230469 34.007812 13.230469 61.859375 C 13.230469 89.710938 35.652344 112.136719 63.507812 112.136719 C 67.492188 112.136719 71.371094 111.675781 75.085938 110.804688 C 89.96875 106.84375 55.566406 80.382812 76.738281 75.089844 C 97.90625 69.796875 113.78125 77.738281 113.78125 61.859375 C 113.78125 34.007812 91.359375 11.585938 63.507812 11.585938 Z M 63.507812 11.585938 "/>
<path style=" stroke:none;fill-rule:nonzero;fill:rgb(100%,100%,100%);fill-opacity:0.392157;" d="M 63.507812 11.585938 C 35.652344 11.585938 13.230469 34.007812 13.230469 61.859375 C 13.230469 62.082031 13.230469 62.300781 13.234375 62.523438 C 13.585938 34.976562 35.875 12.90625 63.507812 12.90625 C 91.09375 12.90625 113.355469 34.90625 113.773438 62.390625 C 113.777344 62.214844 113.78125 62.039062 113.78125 61.859375 C 113.78125 34.007812 91.359375 11.585938 63.507812 11.585938 Z M 69.667969 82.988281 C 69.109375 90.117188 78.261719 100.671875 78.914062 107.078125 C 79.597656 101.246094 70.21875 90.59375 69.667969 82.988281 Z M 69.667969 82.988281 "/>
<path style=" stroke:none;fill-rule:nonzero;fill:rgb(0%,0%,0%);fill-opacity:0.235294;" d="M 113.777344 61.175781 C 113.476562 76.453125 97.703125 68.71875 76.738281 73.960938 C 71.164062 75.351562 69.445312 78.210938 69.660156 81.742188 C 69.863281 78.738281 71.773438 76.332031 76.738281 75.089844 C 97.90625 69.796875 113.78125 77.738281 113.78125 61.859375 C 113.78125 61.632812 113.78125 61.402344 113.777344 61.175781 Z M 13.234375 61.292969 C 13.230469 61.484375 13.230469 61.671875 13.230469 61.859375 C 13.230469 89.710938 35.652344 112.136719 63.507812 112.136719 C 67.492188 112.136719 71.371094 111.675781 75.085938 110.804688 C 78.152344 109.988281 79.125 108.214844 78.921875 105.863281 C 78.742188 107.652344 77.640625 108.996094 75.085938 109.675781 C 71.371094 110.542969 67.492188 111.003906 63.507812 111.003906 C 35.84375 111.003906 13.535156 88.882812 13.234375 61.292969 Z M 13.234375 61.292969 "/>
<path style=" stroke:none;fill-rule:nonzero;fill:rgb(12.941177%,12.941177%,12.941177%);fill-opacity:1;" d="M 63.507812 11.210938 C 35.453125 11.210938 12.855469 33.804688 12.855469 61.859375 C 12.855469 89.914062 35.453125 112.511719 63.507812 112.511719 C 67.523438 112.511719 71.425781 112.046875 75.167969 111.171875 L 75.175781 111.171875 L 75.179688 111.167969 C 77.109375 110.65625 78.320312 109.738281 78.898438 108.511719 C 79.476562 107.28125 79.417969 105.8125 79.007812 104.203125 C 78.183594 100.992188 75.925781 97.148438 73.886719 93.273438 C 71.84375 89.394531 70.03125 85.492188 70.015625 82.34375 C 70.007812 80.769531 70.429688 79.398438 71.476562 78.234375 C 72.523438 77.070312 74.230469 76.105469 76.828125 75.453125 C 87.347656 72.824219 96.558594 73.484375 103.234375 72.816406 C 106.570312 72.484375 109.300781 71.820312 111.214844 70.164062 C 113.132812 68.511719 114.15625 65.890625 114.15625 61.859375 C 114.15625 33.804688 91.558594 11.210938 63.507812 11.210938 Z M 63.507812 11.960938 C 91.15625 11.960938 113.40625 34.207031 113.40625 61.859375 C 113.40625 65.765625 112.449219 68.109375 110.726562 69.597656 C 109.003906 71.085938 106.4375 71.742188 103.160156 72.070312 C 96.605469 72.726562 87.292969 72.066406 76.644531 74.726562 C 73.953125 75.398438 72.101562 76.421875 70.917969 77.730469 C 69.738281 79.042969 69.257812 80.636719 69.265625 82.347656 C 69.28125 85.773438 71.167969 89.726562 73.222656 93.621094 C 75.273438 97.515625 77.503906 101.363281 78.28125 104.390625 C 78.667969 105.90625 78.691406 107.191406 78.21875 108.191406 C 77.75 109.1875 76.78125 109.964844 74.992188 110.441406 C 71.304688 111.304688 67.460938 111.761719 63.507812 111.761719 C 35.855469 111.761719 13.605469 89.511719 13.605469 61.859375 C 13.605469 34.207031 35.855469 11.960938 63.507812 11.960938 Z M 63.507812 11.960938 "/>
<path style="fill-rule:nonzero;fill:url(#linear2);stroke-width:3;stroke-linecap:square;stroke-linejoin:round;stroke:rgb(12.941177%,12.941177%,12.941177%);stroke-opacity:1;stroke-miterlimit:4;" d="M 254.006994 -147.506445 C 277.379762 -147.506445 296.331077 -128.539507 296.331077 -105.166739 C 296.331077 -81.793971 277.379762 -62.827032 254.006994 -62.827032 C 230.618602 -62.827032 211.667287 -81.793971 211.667287 -105.166739 C 211.667287 -128.539507 230.618602 -147.506445 254.006994 -147.506445 Z M 254.006994 -147.506445 " transform="matrix(0.250024,0,0,0.250024,0,53.755133)"/>
<path style="fill-rule:nonzero;fill:url(#linear3);stroke-width:3;stroke-linecap:square;stroke-linejoin:round;stroke:rgb(12.941177%,12.941177%,12.941177%);stroke-opacity:1;stroke-miterlimit:4;" d="M 370.417752 -73.41977 C 393.79052 -73.41977 412.757459 -54.468455 412.757459 -31.080063 C 412.757459 -7.707295 393.79052 11.24402 370.417752 11.24402 C 347.02936 11.24402 328.078045 -7.707295 328.078045 -31.080063 C 328.078045 -54.468455 347.02936 -73.41977 370.417752 -73.41977 Z M 370.417752 -73.41977 " transform="matrix(0.250024,0,0,0.250024,0,53.755133)"/>
<path style="fill-rule:nonzero;fill:url(#linear4);stroke-width:3;stroke-linecap:square;stroke-linejoin:round;stroke:rgb(12.941177%,12.941177%,12.941177%);stroke-opacity:1;stroke-miterlimit:4;" d="M 137.580612 -73.41977 C 160.969003 -73.41977 179.920318 -54.468455 179.920318 -31.080063 C 179.920318 -7.707295 160.969003 11.24402 137.580612 11.24402 C 114.207844 11.24402 95.256528 -7.707295 95.256528 -31.080063 C 95.256528 -54.468455 114.207844 -73.41977 137.580612 -73.41977 Z M 137.580612 -73.41977 " transform="matrix(0.250024,0,0,0.250024,0,53.755133)"/>
<path style="fill-rule:nonzero;fill:url(#linear5);stroke-width:3;stroke-linecap:square;stroke-linejoin:round;stroke:rgb(12.941177%,12.941177%,12.941177%);stroke-opacity:1;stroke-miterlimit:4;" d="M 137.580612 53.583727 C 160.969003 53.583727 179.920318 72.535042 179.920318 95.923433 C 179.920318 119.296201 160.969003 138.247517 137.580612 138.247517 C 114.207844 138.247517 95.256528 119.296201 95.256528 95.923433 C 95.256528 72.535042 114.207844 53.583727 137.580612 53.583727 Z M 137.580612 53.583727 " transform="matrix(0.250024,0,0,0.250024,0,53.755133)"/>
</g>
</svg>

<svg xmlns="http://www.w3.org/2000/svg" width="128pt" height="128pt" viewBox="0 0 128 128"><defs><radialGradient id="a" gradientUnits="userSpaceOnUse" cx="450.909" cy="189.579" fx="450.909" fy="189.579" r="21.167" gradientTransform="matrix(0 -.31253 -.56255 0 178.093 254.381)"><stop offset="0" stop-opacity=".314"/><stop offset=".222" stop-opacity=".275"/><stop offset="1" stop-opacity="0"/></radialGradient><radialGradient id="b" gradientUnits="userSpaceOnUse" cx="450.909" cy="189.579" fx="450.909" fy="189.579" r="21.167" gradientTransform="matrix(0 .31253 .56255 0 -51.08 -30.11)"><stop offset="0" stop-opacity=".314"/><stop offset=".222" stop-opacity=".275"/><stop offset="1" stop-opacity="0"/></radialGradient><radialGradient id="c" gradientUnits="userSpaceOnUse" cx="450.909" cy="189.579" fx="450.909" fy="189.579" r="21.167" gradientTransform="matrix(0 -.31253 .56255 0 -51.08 254.381)"><stop offset="0" stop-opacity=".314"/><stop offset=".222" stop-opacity=".275"/><stop offset="1" stop-opacity="0"/></radialGradient><radialGradient id="d" gradientUnits="userSpaceOnUse" cx="450.909" cy="189.579" fx="450.909" fy="189.579" r="21.167" gradientTransform="matrix(0 .31253 -.56255 0 178.093 -30.11)"><stop offset="0" stop-opacity=".314"/><stop offset=".222" stop-opacity=".275"/><stop offset="1" stop-opacity="0"/></radialGradient><linearGradient id="e" gradientUnits="userSpaceOnUse" x1="255.323" y1="233.5" x2="255.323" y2="254.667" gradientTransform="matrix(.05344 0 0 .25002 49.862 53.755)"><stop offset="0" stop-opacity=".275"/><stop offset="1" stop-opacity="0"/></linearGradient><linearGradient id="f" gradientUnits="userSpaceOnUse" x1="254" y1="-168.667" x2="254" y2="233.5" gradientTransform="matrix(.25002 0 0 .25002 0 53.755)"><stop offset="0" stop-color="#b0bec5"/><stop offset="1" stop-color="#78909c"/></linearGradient><linearGradient id="g" gradientUnits="userSpaceOnUse" x1="243.417" y1="-147.5" x2="243.417" y2="-62.833"><stop offset="0" stop-color="#ef5350"/><stop offset="1" stop-color="#e57373"/></linearGradient><linearGradient id="h" gradientUnits="userSpaceOnUse" x1="243.417" y1="-147.5" x2="243.417" y2="-62.833" gradientTransform="translate(116.417 74.083)"><stop offset="0" stop-color="#26a69a"/><stop offset="1" stop-color="#4db6ac"/></linearGradient><linearGradient id="i" gradientUnits="userSpaceOnUse" x1="264.583" y1="-147.5" x2="264.583" y2="-62.833" gradientTransform="translate(-116.417 74.083)"><stop offset="0" stop-color="#42a5f5"/><stop offset="1" stop-color="#64b5f6"/></linearGradient><linearGradient id="j" gradientUnits="userSpaceOnUse" x1="275.167" y1="-147.5" x2="275.167" y2="-62.833" gradientTransform="translate(-116.417 201.083)"><stop offset="0" stop-color="#ffca28"/><stop offset="1" stop-color="#ffd54f"/></linearGradient></defs><path d="M72.766 112.137h10.586v-5.293H72.766zm0 0" fill="url(#a)"/><path d="M54.246 112.137H43.66v5.293h10.586zm0 0" fill="url(#b)"/><path d="M54.246 112.137H43.66v-5.293h10.586zm0 0" fill="url(#c)"/><path d="M72.766 112.137h10.586v5.293H72.766zm0 0" fill="url(#d)"/><path d="M54.246 110.813h18.52v6.617h-18.52zm0 0" fill="url(#e)"/><path d="M63.508 11.586c-27.856 0-50.278 22.422-50.278 50.273 0 27.852 22.422 50.278 50.278 50.278 3.984 0 7.863-.461 11.578-1.332 14.883-3.961-19.52-30.422 1.652-35.715 21.168-5.293 37.043 2.648 37.043-13.23 0-27.852-22.422-50.274-50.273-50.274zm0 0" fill="url(#f)"/><path d="M63.508 11.586c-27.856 0-50.278 22.422-50.278 50.273 0 .223 0 .442.004.664.352-27.546 22.641-49.617 50.274-49.617 27.586 0 49.847 22 50.265 49.485.004-.176.008-.352.008-.532 0-27.851-22.422-50.273-50.273-50.273zm6.16 71.402c-.559 7.13 8.594 17.684 9.246 24.09.684-5.832-8.695-16.484-9.246-24.09zm0 0" fill="#fff" fill-opacity=".392"/><path d="M113.777 61.176c-.3 15.277-16.074 7.543-37.039 12.785-5.574 1.39-7.293 4.25-7.078 7.781.203-3.004 2.113-5.41 7.078-6.652 21.168-5.293 37.043 2.648 37.043-13.23 0-.227 0-.458-.004-.684zm-100.543.117c-.004.191-.004.379-.004.566 0 27.852 22.422 50.278 50.278 50.278 3.984 0 7.863-.461 11.578-1.332 3.066-.817 4.039-2.59 3.836-4.942-.18 1.79-1.281 3.133-3.836 3.813a50.9 50.9 0 0 1-11.578 1.328c-27.664 0-49.973-22.121-50.274-49.711zm0 0" fill-opacity=".235"/><path d="M63.508 11.21c-28.055 0-50.653 22.595-50.653 50.65 0 28.054 22.598 50.652 50.653 50.652 4.015 0 7.918-.465 11.66-1.34h.008l.004-.004c1.93-.512 3.14-1.43 3.718-2.656.579-1.23.52-2.7.11-4.309-.824-3.21-3.082-7.055-5.121-10.93-2.043-3.878-3.856-7.78-3.871-10.93-.008-1.573.414-2.945 1.46-4.109 1.047-1.164 2.754-2.129 5.352-2.78 10.52-2.63 19.73-1.97 26.406-2.638 3.336-.332 6.067-.996 7.98-2.652 1.919-1.652 2.942-4.273 2.942-8.305 0-28.054-22.597-50.648-50.648-50.648zm0 .75c27.648 0 49.898 22.247 49.898 49.9 0 3.906-.957 6.25-2.68 7.738-1.722 1.488-4.288 2.144-7.566 2.472-6.555.657-15.867-.004-26.515 2.657-2.692.671-4.543 1.695-5.727 3.003-1.18 1.313-1.66 2.907-1.652 4.618.015 3.425 1.902 7.379 3.957 11.273 2.05 3.895 4.28 7.742 5.058 10.77.387 1.515.41 2.8-.062 3.8-.469.996-1.438 1.774-3.227 2.25a50.325 50.325 0 0 1-11.484 1.32c-27.653 0-49.903-22.25-49.903-49.902s22.25-49.898 49.903-49.898zm0 0" fill="#212121"/><path d="M254.007-147.506c23.373 0 42.324 18.966 42.324 42.34 0 23.372-18.951 42.339-42.324 42.339-23.388 0-42.34-18.967-42.34-42.34 0-23.373 18.952-42.34 42.34-42.34zm0 0" transform="matrix(.25002 0 0 .25002 0 53.755)" fill="url(#g)" stroke-width="3" stroke-linecap="square" stroke-linejoin="round" stroke="#212121"/><path d="M370.418-73.42c23.373 0 42.34 18.952 42.34 42.34 0 23.373-18.967 42.324-42.34 42.324-23.389 0-42.34-18.951-42.34-42.324 0-23.388 18.951-42.34 42.34-42.34zm0 0" transform="matrix(.25002 0 0 .25002 0 53.755)" fill="url(#h)" stroke-width="3" stroke-linecap="square" stroke-linejoin="round" stroke="#212121"/><path d="M137.58-73.42c23.389 0 42.34 18.952 42.34 42.34 0 23.373-18.951 42.324-42.34 42.324-23.372 0-42.323-18.951-42.323-42.324 0-23.388 18.95-42.34 42.324-42.34zm0 0" transform="matrix(.25002 0 0 .25002 0 53.755)" fill="url(#i)" stroke-width="3" stroke-linecap="square" stroke-linejoin="round" stroke="#212121"/><path d="M137.58 53.584c23.389 0 42.34 18.951 42.34 42.34 0 23.372-18.951 42.324-42.34 42.324-23.372 0-42.323-18.952-42.323-42.325 0-23.388 18.95-42.34 42.324-42.34zm0 0" transform="matrix(.25002 0 0 .25002 0 53.755)" fill="url(#j)" stroke-width="3" stroke-linecap="square" stroke-linejoin="round" stroke="#212121"/></svg>
